; generated by PrusaSlicer 2.3.3+win64 on 2021-11-09 at 17:28:52 UTC

; 

; external perimeters extrusion width = 0.45mm
; perimeters extrusion width = 0.45mm
; infill extrusion width = 0.45mm
; solid infill extrusion width = 0.45mm
; top infill extrusion width = 0.40mm
; first layer extrusion width = 0.42mm

M73 P0 R94
M73 Q0 S95
M201 X1000 Y1000 Z200 E5000 ; sets maximum accelerations, mm/sec^2
M203 X200 Y200 Z12 E120 ; sets maximum feedrates, mm/sec
M204 P1250 R1250 T1250 ; sets acceleration (P, T) and retract acceleration (R), mm/sec^2
M205 X8.00 Y8.00 Z0.40 E4.50 ; sets the jerk limits, mm/sec
M205 S0 T0 ; sets the minimum extruding and travel feed rate, mm/sec
M107
;TYPE:Custom
M862.3 P "MK3S" ; printer model check
M862.1 P0.4 ; nozzle diameter check
M115 U3.9.1 ; tell printer latest fw version
G90 ; use absolute coordinates
M83 ; extruder relative mode
M104 S230 ; set extruder temp
M140 S50 ; set bed temp
M190 S50 ; wait for bed temp
M109 S230 ; wait for extruder temp
G28 W ; home all without mesh bed level
G80 ; mesh bed leveling
G1 Y-3.0 F1000.0 ; go outside print area
G92 E0.0
G1 X60.0 E9.0 F1000.0 ; intro line
G1 X100.0 E12.5 F1000.0 ; intro line
G92 E0.0
M221 S95

; Don't change E values below. Excessive value can damage the printer.
M907 E430 ; set extruder motor current
G21 ; set units to millimeters
G90 ; use absolute coordinates
M83 ; use relative distances for extrusion
M900 K0
;LAYER_CHANGE
;Z:0.2
;HEIGHT:0.2
;BEFORE_LAYER_CHANGE
G92 E0.0
;0.2


G1 E-1.00000 F2100.000
G1 Z0.200 F10800.000
;AFTER_LAYER_CHANGE
;0.2
G1 X92.197 Y60.562
G1 E1.00000 F1500.000
M204 S1000
;TYPE:Skirt
;WIDTH:0.42
G1 F1200.000
G1 X93.185 Y59.130 E0.06001
G1 X94.334 Y57.833 E0.05975
G1 X95.640 Y56.678 E0.06014
G1 X97.063 Y55.696 E0.05962
G1 X98.603 Y54.888 E0.06001
G1 X100.227 Y54.273 E0.05988
G1 X101.969 Y53.848 E0.06184
G1 X103.564 Y53.654 E0.05542
G1 X104.489 Y53.623 E0.03192
G1 X145.504 Y53.623 E1.41458
G1 X147.162 Y53.720 E0.05727
G1 X148.092 Y53.859 E0.03245
G1 X149.708 Y54.254 E0.05739
G1 X150.599 Y54.557 E0.03245
G1 X152.117 Y55.237 E0.05739
G1 X152.938 Y55.697 E0.03245
G1 X153.726 Y56.210 E0.03241
G1 X155.031 Y57.236 E0.05729
G1 X155.716 Y57.885 E0.03254
G1 X156.818 Y59.134 E0.05742
G1 X157.372 Y59.893 E0.03241
G1 X158.229 Y61.316 E0.05729
G1 X158.639 Y62.165 E0.03254
G1 X159.225 Y63.720 E0.05729
G1 X159.475 Y64.627 E0.03245
G1 X159.767 Y66.226 E0.05607
G1 X159.877 Y67.997 E0.06119
G1 X159.877 Y142.034 E2.55353
M73 Q0 S94
G1 X159.773 Y143.730 E0.05859
G1 X159.475 Y145.374 E0.05765
G1 X159.205 Y146.343 E0.03468
G1 X158.601 Y147.922 E0.05830
G1 X157.799 Y149.445 E0.05935
G1 X156.774 Y150.920 E0.06197
G1 X155.087 Y152.713 E0.08490
G1 X153.722 Y153.793 E0.06001
G1 X152.188 Y154.727 E0.06197
G1 X150.601 Y155.442 E0.06001
G1 X148.940 Y155.959 E0.06001
G1 X147.229 Y156.273 E0.06001
G1 X145.507 Y156.377 E0.05948
G1 X104.443 Y156.376 E1.41629
G1 X102.766 Y156.272 E0.05793
G1 X101.122 Y155.974 E0.05765
G1 X100.157 Y155.705 E0.03455
G1 X98.578 Y155.101 E0.05830
G1 X97.004 Y154.267 E0.06145
G1 X95.021 Y152.808 E0.08490
G1 X93.743 Y151.539 E0.06211
G1 X92.670 Y150.170 E0.06001
G1 X91.768 Y148.677 E0.06014
G1 X91.034 Y147.033 E0.06211
G1 X90.372 Y144.658 E0.08503
G1 X90.152 Y142.909 E0.06079
G1 X90.123 Y67.962 E2.58492
G1 X90.227 Y66.270 E0.05846
G1 X90.525 Y64.626 E0.05765
G1 X90.795 Y63.657 E0.03468
G1 X91.399 Y62.078 E0.05830
G1 X92.169 Y60.615 E0.05702
; printing object rubber_gasket v4.stl id:0 copy 0
G1 E-1.00000 F2100.000
G1 X153.171 Y132.490 F10800.000
G1 E1.00000 F1500.000
;TYPE:External perimeter
G1 F1200.000
G1 X153.445 Y132.287 E0.01177
G1 X153.750 Y132.134 E0.01177
G1 X154.076 Y132.034 E0.01177
G1 X154.383 Y131.994 E0.01066
G1 X154.754 Y132.004 E0.01281
G1 X155.089 Y132.077 E0.01182
G1 X155.406 Y132.204 E0.01177
G1 X155.696 Y132.383 E0.01177
G1 X155.952 Y132.608 E0.01177
G1 X156.167 Y132.874 E0.01177
G1 X156.317 Y133.143 E0.01066
G1 X156.446 Y133.492 E0.01281
G1 X156.504 Y133.829 E0.01182
G1 X156.504 Y134.171 E0.01177
G1 X156.447 Y134.507 E0.01177
G1 X156.333 Y134.829 E0.01177
G1 X156.167 Y135.126 E0.01177
G1 X155.952 Y135.392 E0.01177
G1 X155.696 Y135.617 E0.01177
G1 X155.406 Y135.796 E0.01177
G1 X155.119 Y135.911 E0.01066
G1 X154.757 Y135.995 E0.01281
G1 X154.415 Y136.010 E0.01182
G1 X154.076 Y135.966 E0.01177
G1 X153.750 Y135.866 E0.01177
G1 X153.445 Y135.713 E0.01177
G1 X153.197 Y135.529 E0.01066
G1 X152.936 Y135.265 E0.01281
G1 X152.744 Y134.981 E0.01182
G1 X152.603 Y134.670 E0.01177
G1 X152.517 Y134.340 E0.01177
G1 X152.489 Y134.000 E0.01177
G1 X152.517 Y133.660 E0.01177
G1 X152.603 Y133.330 E0.01177
G1 X152.744 Y133.019 E0.01177
G1 X152.935 Y132.736 E0.01177
G1 X153.130 Y132.533 E0.00970
G1 X153.104 Y132.156 F10800.000
G1 E-1.00000 F2100.000
G1 X154.415 Y78.010 F10800.000
G1 E1.00000 F1500.000
G1 F1200.000
G1 X154.076 Y77.966 E0.01177
G1 X153.750 Y77.866 E0.01177
G1 X153.445 Y77.713 E0.01177
G1 X153.197 Y77.529 E0.01066
G1 X152.936 Y77.265 E0.01281
G1 X152.744 Y76.981 E0.01182
G1 X152.603 Y76.670 E0.01177
G1 X152.517 Y76.340 E0.01177
G1 X152.489 Y76.000 E0.01177
G1 X152.517 Y75.660 E0.01177
G1 X152.603 Y75.330 E0.01177
G1 X152.744 Y75.019 E0.01177
G1 X152.935 Y74.736 E0.01177
G1 X153.171 Y74.490 E0.01177
G1 X153.445 Y74.287 E0.01177
G1 X153.750 Y74.134 E0.01177
G1 X154.076 Y74.034 E0.01177
G1 X154.383 Y73.994 E0.01066
G1 X154.754 Y74.004 E0.01281
G1 X155.089 Y74.077 E0.01182
G1 X155.406 Y74.204 E0.01177
G1 X155.696 Y74.383 E0.01177
G1 X155.952 Y74.608 E0.01177
G1 X156.167 Y74.874 E0.01177
G1 X156.317 Y75.143 E0.01066
G1 X156.446 Y75.492 E0.01281
G1 X156.504 Y75.829 E0.01182
G1 X156.504 Y76.171 E0.01177
G1 X156.447 Y76.507 E0.01177
G1 X156.333 Y76.829 E0.01177
G1 X156.167 Y77.126 E0.01177
G1 X155.952 Y77.392 E0.01177
G1 X155.696 Y77.617 E0.01177
G1 X155.406 Y77.796 E0.01177
G1 X155.119 Y77.911 E0.01066
G1 X154.757 Y77.995 E0.01281
G1 X154.475 Y78.007 E0.00975
G1 X154.233 Y78.298 F10800.000
G1 X156.336 Y78.059
;TYPE:Perimeter
G1 F1200.000
G1 X156.336 Y131.941 E1.85839
G1 X156.146 Y131.774 E0.00871
G1 X155.746 Y131.528 E0.01619
G1 X155.311 Y131.353 E0.01619
G1 X154.844 Y131.252 E0.01645
G1 X154.345 Y131.239 E0.01724
G1 X153.917 Y131.294 E0.01488
G1 X153.468 Y131.431 E0.01619
G1 X153.049 Y131.643 E0.01619
G1 X152.671 Y131.922 E0.01619
G1 X152.346 Y132.261 E0.01619
G1 X152.083 Y132.650 E0.01619
G1 X151.890 Y133.078 E0.01619
G1 X151.771 Y133.532 E0.01619
G1 X151.732 Y134.000 E0.01619
G1 X151.771 Y134.468 E0.01619
G1 X151.890 Y134.922 E0.01619
G1 X152.083 Y135.350 E0.01619
G1 X152.350 Y135.745 E0.01645
G1 X152.702 Y136.101 E0.01724
G1 X153.049 Y136.357 E0.01488
G1 X153.468 Y136.569 E0.01619
G1 X153.917 Y136.706 E0.01619
G1 X154.383 Y136.766 E0.01619
G1 X154.859 Y136.746 E0.01645
G1 X155.346 Y136.633 E0.01724
G1 X155.746 Y136.472 E0.01488
G1 X156.146 Y136.226 E0.01619
G1 X156.336 Y136.059 E0.00871
G1 X156.336 Y141.982 E0.20430
G1 X156.316 Y142.654 E0.02318
G1 X156.256 Y143.306 E0.02257
G1 X156.158 Y143.953 E0.02257
G1 X156.020 Y144.593 E0.02257
G1 X155.845 Y145.224 E0.02257
G1 X155.631 Y145.842 E0.02257
G1 X155.381 Y146.447 E0.02257
G1 X155.094 Y147.035 E0.02257
G1 X154.773 Y147.606 E0.02257
G1 X154.417 Y148.155 E0.02257
G1 X154.029 Y148.682 E0.02257
G1 X153.610 Y149.185 E0.02257
G1 X153.162 Y149.662 E0.02257
G1 X152.685 Y150.110 E0.02257
G1 X152.182 Y150.529 E0.02257
G1 X151.655 Y150.917 E0.02257
G1 X151.106 Y151.273 E0.02257
G1 X150.535 Y151.594 E0.02257
G1 X149.947 Y151.881 E0.02257
G1 X149.342 Y152.131 E0.02257
G1 X148.724 Y152.345 E0.02257
G1 X148.093 Y152.520 E0.02257
G1 X147.453 Y152.658 E0.02257
G1 X146.806 Y152.756 E0.02257
G1 X146.154 Y152.816 E0.02257
G1 X145.482 Y152.836 E0.02318
G1 X104.518 Y152.836 E1.41287
G1 X103.846 Y152.816 E0.02318
G1 X103.194 Y152.756 E0.02257
G1 X102.547 Y152.658 E0.02257
G1 X101.907 Y152.520 E0.02257
G1 X101.276 Y152.345 E0.02257
G1 X100.658 Y152.131 E0.02257
G1 X100.053 Y151.881 E0.02257
G1 X99.465 Y151.594 E0.02257
G1 X98.894 Y151.273 E0.02257
G1 X98.345 Y150.917 E0.02257
G1 X97.818 Y150.529 E0.02257
G1 X97.337 Y150.129 E0.02157
G1 X96.837 Y149.661 E0.02361
G1 X96.390 Y149.185 E0.02253
G1 X95.971 Y148.682 E0.02257
G1 X95.583 Y148.155 E0.02257
G1 X95.227 Y147.606 E0.02257
G1 X94.906 Y147.035 E0.02257
G1 X94.619 Y146.447 E0.02257
G1 X94.369 Y145.842 E0.02257
G1 X94.155 Y145.224 E0.02257
G1 X93.980 Y144.593 E0.02257
G1 X93.842 Y143.953 E0.02257
G1 X93.744 Y143.306 E0.02257
G1 X93.684 Y142.654 E0.02257
G1 X93.664 Y141.982 E0.02318
G1 X93.664 Y136.063 E0.20416
G1 X94.049 Y136.357 E0.01670
G1 X94.468 Y136.569 E0.01619
G1 X94.917 Y136.706 E0.01619
G1 X95.383 Y136.766 E0.01619
G1 X95.852 Y136.746 E0.01619
G1 X96.311 Y136.647 E0.01619
G1 X96.746 Y136.472 E0.01619
G1 X97.146 Y136.226 E0.01619
G1 X97.499 Y135.916 E0.01619
G1 X97.794 Y135.550 E0.01619
G1 X98.023 Y135.140 E0.01619
G1 X98.179 Y134.698 E0.01619
G1 X98.258 Y134.235 E0.01619
G1 X98.258 Y133.765 E0.01619
G1 X98.179 Y133.302 E0.01619
G1 X98.023 Y132.860 E0.01619
G1 X97.794 Y132.450 E0.01619
G1 X97.499 Y132.084 E0.01619
G1 X97.146 Y131.774 E0.01619
G1 X96.746 Y131.528 E0.01619
G1 X96.311 Y131.353 E0.01619
G1 X95.844 Y131.252 E0.01645
G1 X95.345 Y131.239 E0.01724
G1 X94.917 Y131.294 E0.01488
G1 X94.468 Y131.431 E0.01619
G1 X94.049 Y131.643 E0.01619
G1 X93.664 Y131.929 E0.01653
G1 X93.664 Y78.063 E1.85783
G1 X94.049 Y78.357 E0.01670
G1 X94.468 Y78.569 E0.01619
G1 X94.917 Y78.706 E0.01619
G1 X95.383 Y78.766 E0.01619
G1 X95.852 Y78.746 E0.01619
G1 X96.311 Y78.647 E0.01619
G1 X96.746 Y78.472 E0.01619
G1 X97.146 Y78.226 E0.01619
G1 X97.499 Y77.916 E0.01619
G1 X97.794 Y77.550 E0.01619
G1 X98.023 Y77.140 E0.01619
G1 X98.179 Y76.698 E0.01619
G1 X98.258 Y76.235 E0.01619
G1 X98.258 Y75.765 E0.01619
G1 X98.179 Y75.302 E0.01619
G1 X98.023 Y74.860 E0.01619
G1 X97.794 Y74.450 E0.01619
G1 X97.499 Y74.084 E0.01619
G1 X97.146 Y73.774 E0.01619
G1 X96.746 Y73.528 E0.01619
G1 X96.311 Y73.353 E0.01619
G1 X95.844 Y73.252 E0.01645
G1 X95.345 Y73.239 E0.01724
G1 X94.917 Y73.294 E0.01488
G1 X94.468 Y73.431 E0.01619
G1 X94.049 Y73.643 E0.01619
G1 X93.664 Y73.929 E0.01653
G1 X93.664 Y68.018 E0.20388
G1 X93.684 Y67.346 E0.02318
G1 X93.744 Y66.694 E0.02257
G1 X93.842 Y66.047 E0.02257
G1 X93.980 Y65.407 E0.02257
G1 X94.155 Y64.776 E0.02257
G1 X94.369 Y64.158 E0.02257
G1 X94.619 Y63.553 E0.02257
G1 X94.906 Y62.965 E0.02257
G1 X95.227 Y62.394 E0.02257
G1 X95.583 Y61.845 E0.02257
G1 X95.971 Y61.318 E0.02257
G1 X96.390 Y60.815 E0.02257
G1 X96.838 Y60.338 E0.02257
G1 X97.315 Y59.890 E0.02257
G1 X97.818 Y59.471 E0.02257
G1 X98.345 Y59.083 E0.02257
G1 X98.894 Y58.727 E0.02257
G1 X99.465 Y58.406 E0.02257
G1 X100.053 Y58.119 E0.02257
G1 X100.658 Y57.869 E0.02257
G1 X101.276 Y57.655 E0.02257
G1 X101.907 Y57.480 E0.02257
G1 X102.547 Y57.342 E0.02257
G1 X103.194 Y57.244 E0.02257
G1 X103.846 Y57.184 E0.02257
G1 X104.518 Y57.164 E0.02318
G1 X120.586 Y57.164 E0.55419
G1 X120.586 Y62.551 E0.18578
G1 X120.614 Y62.877 E0.01128
G1 X120.712 Y63.242 E0.01304
G1 X120.872 Y63.584 E0.01304
G1 X121.089 Y63.894 E0.01304
G1 X121.356 Y64.161 E0.01304
G1 X121.666 Y64.378 E0.01304
G1 X122.008 Y64.538 E0.01304
G1 X122.373 Y64.636 E0.01304
G1 X122.699 Y64.664 E0.01128
G1 X127.301 Y64.664 E0.15871
G1 X127.627 Y64.636 E0.01128
G1 X127.992 Y64.538 E0.01304
G1 X128.334 Y64.378 E0.01304
G1 X128.644 Y64.161 E0.01304
G1 X128.911 Y63.894 E0.01304
G1 X129.128 Y63.584 E0.01304
G1 X129.288 Y63.242 E0.01304
G1 X129.386 Y62.877 E0.01304
G1 X129.414 Y62.551 E0.01128
G1 X129.414 Y57.164 E0.18578
G1 X145.482 Y57.164 E0.55419
G1 X146.154 Y57.184 E0.02318
G1 X146.806 Y57.244 E0.02257
G1 X147.453 Y57.342 E0.02257
G1 X148.065 Y57.473 E0.02157
G1 X148.725 Y57.656 E0.02361
G1 X149.342 Y57.869 E0.02253
G1 X149.947 Y58.119 E0.02257
G1 X150.535 Y58.406 E0.02257
G1 X151.106 Y58.727 E0.02257
G1 X151.655 Y59.083 E0.02257
G1 X152.182 Y59.471 E0.02257
G1 X152.685 Y59.890 E0.02257
G1 X153.162 Y60.338 E0.02257
G1 X153.610 Y60.815 E0.02257
G1 X154.029 Y61.318 E0.02257
G1 X154.417 Y61.845 E0.02257
G1 X154.773 Y62.394 E0.02257
G1 X155.094 Y62.965 E0.02257
G1 X155.381 Y63.553 E0.02257
G1 X155.631 Y64.158 E0.02257
G1 X155.845 Y64.776 E0.02257
G1 X156.020 Y65.407 E0.02257
G1 X156.158 Y66.047 E0.02257
G1 X156.256 Y66.694 E0.02257
G1 X156.316 Y67.346 E0.02257
G1 X156.336 Y68.018 E0.02318
G1 X156.336 Y73.941 E0.20430
G1 X156.146 Y73.774 E0.00871
G1 X155.746 Y73.528 E0.01619
G1 X155.311 Y73.353 E0.01619
G1 X154.844 Y73.252 E0.01645
G1 X154.345 Y73.239 E0.01724
G1 X153.917 Y73.294 E0.01488
G1 X153.468 Y73.431 E0.01619
G1 X153.049 Y73.643 E0.01619
G1 X152.671 Y73.922 E0.01619
G1 X152.346 Y74.261 E0.01619
G1 X152.083 Y74.650 E0.01619
G1 X151.890 Y75.078 E0.01619
G1 X151.771 Y75.532 E0.01619
G1 X151.732 Y76.000 E0.01619
G1 X151.771 Y76.468 E0.01619
G1 X151.890 Y76.922 E0.01619
G1 X152.083 Y77.350 E0.01619
G1 X152.350 Y77.745 E0.01645
G1 X152.702 Y78.101 E0.01724
G1 X153.049 Y78.357 E0.01488
G1 X153.468 Y78.569 E0.01619
G1 X153.917 Y78.706 E0.01619
G1 X154.383 Y78.766 E0.01619
G1 X154.859 Y78.746 E0.01645
G1 X155.346 Y78.633 E0.01724
G1 X155.746 Y78.472 E0.01488
G1 X156.146 Y78.226 E0.01619
G1 X156.291 Y78.098 E0.00665
G1 X156.678 Y76.984 F10800.000
G1 F1200.000
G1 X156.713 Y76.885 E0.00364
G1 X156.713 Y133.126 E1.93974
G1 X156.661 Y132.985 E0.00519
G1 X156.480 Y132.662 E0.01277
G1 X156.225 Y132.346 E0.01398
G1 X155.921 Y132.079 E0.01398
G1 X155.576 Y131.866 E0.01398
G1 X155.200 Y131.715 E0.01398
G1 X154.799 Y131.628 E0.01414
G1 X154.364 Y131.617 E0.01502
G1 X153.996 Y131.664 E0.01277
G1 X153.609 Y131.782 E0.01398
G1 X153.247 Y131.965 E0.01398
G1 X152.921 Y132.206 E0.01398
G1 X152.641 Y132.499 E0.01398
G1 X152.414 Y132.834 E0.01398
G1 X152.247 Y133.204 E0.01398
G1 X152.144 Y133.596 E0.01398
G1 X152.110 Y134.000 E0.01398
G1 X152.144 Y134.404 E0.01398
G1 X152.247 Y134.796 E0.01398
G1 X152.414 Y135.166 E0.01398
G1 X152.643 Y135.505 E0.01414
G1 X152.949 Y135.815 E0.01502
G1 X153.247 Y136.035 E0.01277
G1 X153.609 Y136.218 E0.01398
G1 X153.996 Y136.336 E0.01398
G1 X154.399 Y136.388 E0.01398
G1 X154.808 Y136.370 E0.01414
G1 X155.232 Y136.272 E0.01502
G1 X155.576 Y136.134 E0.01277
G1 X155.921 Y135.921 E0.01398
G1 X156.225 Y135.654 E0.01398
G1 X156.480 Y135.338 E0.01398
G1 X156.678 Y134.984 E0.01398
G1 X156.713 Y134.885 E0.00364
G1 X156.713 Y141.988 E0.24499
G1 X156.692 Y142.677 E0.02377
G1 X156.631 Y143.352 E0.02336
G1 X156.529 Y144.021 E0.02336
G1 X156.387 Y144.683 E0.02336
G1 X156.205 Y145.336 E0.02336
G1 X155.984 Y145.976 E0.02336
G1 X155.725 Y146.602 E0.02336
G1 X155.428 Y147.211 E0.02336
G1 X155.096 Y147.801 E0.02336
G1 X154.728 Y148.369 E0.02336
G1 X154.326 Y148.915 E0.02336
G1 X153.893 Y149.435 E0.02336
G1 X153.428 Y149.928 E0.02336
G1 X152.935 Y150.393 E0.02336
G1 X152.415 Y150.826 E0.02336
G1 X151.869 Y151.228 E0.02336
G1 X151.301 Y151.596 E0.02336
G1 X150.711 Y151.928 E0.02336
G1 X150.102 Y152.225 E0.02336
G1 X149.476 Y152.484 E0.02336
G1 X148.836 Y152.705 E0.02336
G1 X148.183 Y152.887 E0.02336
G1 X147.521 Y153.029 E0.02336
G1 X146.852 Y153.131 E0.02336
G1 X146.177 Y153.192 E0.02336
G1 X145.488 Y153.213 E0.02377
G1 X104.512 Y153.213 E1.41326
G1 X103.823 Y153.192 E0.02377
G1 X103.148 Y153.131 E0.02336
G1 X102.479 Y153.029 E0.02336
G1 X101.817 Y152.887 E0.02336
G1 X101.164 Y152.705 E0.02336
G1 X100.524 Y152.484 E0.02336
G1 X99.898 Y152.225 E0.02336
G1 X99.289 Y151.928 E0.02336
G1 X98.699 Y151.596 E0.02336
G1 X98.131 Y151.228 E0.02336
G1 X97.585 Y150.826 E0.02336
G1 X97.087 Y150.412 E0.02234
G1 X96.571 Y149.928 E0.02440
G1 X96.107 Y149.435 E0.02334
G1 X95.674 Y148.915 E0.02336
G1 X95.272 Y148.369 E0.02336
G1 X94.904 Y147.801 E0.02336
G1 X94.572 Y147.211 E0.02336
G1 X94.275 Y146.602 E0.02336
G1 X94.016 Y145.976 E0.02336
G1 X93.795 Y145.336 E0.02336
G1 X93.613 Y144.683 E0.02336
G1 X93.471 Y144.021 E0.02336
G1 X93.369 Y143.352 E0.02336
G1 X93.308 Y142.677 E0.02336
G1 X93.287 Y141.988 E0.02377
G1 X93.287 Y134.886 E0.24496
G1 X93.414 Y135.166 E0.01059
G1 X93.643 Y135.505 E0.01414
G1 X93.949 Y135.815 E0.01502
G1 X94.247 Y136.035 E0.01277
G1 X94.609 Y136.218 E0.01398
G1 X94.996 Y136.336 E0.01398
